; generated by NVBOTS

; external perimeters extrusion width = 0.39mm
; perimeters extrusion width = 0.39mm
; infill extrusion width = 0.45mm
; solid infill extrusion width = 0.60mm
; top infill extrusion width = 0.35mm

M107
M190 S30 ; set bed temperature
M104 S190 ; set temperature

M109 S190 ; wait for temperature to be reached
G21 ; set units to millimeters
G90 ; use absolute coordinates
M83 ; use relative distances for extrusion
G10 ; retract
G1 Z0.300 F12000.000
;$ layer 0
G0 X0 Y230 F10800;
 G4 P1
M38 Spic 0; take picture and tag layer number
M105; check temperatures
G1 X83.721 Y83.721 F12000.000
G11 ; unretract
M204 S500
G1 X116.279 Y83.721 E1.93137 F1200.000
G1 X116.279 Y116.279 E1.93137
G1 X83.721 Y116.279 E1.93137
G1 X83.721 Y83.781 E1.92781
M204 S3000
G1 X83.246 Y83.246 F12000.000
M204 S500
G1 X116.754 Y83.246 E1.98780 F1200.000
G1 X116.754 Y116.754 E1.98780
G1 X83.246 Y116.754 E1.98780
G1 X83.246 Y83.306 E1.98424
M204 S3000
G1 X82.770 Y82.770 F12000.000
M204 S500
G1 X117.230 Y82.770 E2.04423 F1200.000
G1 X117.230 Y117.230 E2.04423
G1 X82.770 Y117.230 E2.04423
G1 X82.770 Y82.830 E2.04067
M204 S3000
G1 X83.116 Y82.970 F12000.000
G1 X84.005 Y115.754 F12000.000
M204 S500
G1 X84.246 Y115.995 E0.02037 F1200.000
G1 X84.922 Y115.995 E0.04024
G1 X84.005 Y115.078 E0.07728
G1 X84.005 Y114.403 E0.04024
G1 X85.597 Y115.995 E0.13419
G1 X86.273 Y115.995 E0.04024
G1 X84.005 Y113.727 E0.19111
G1 X84.005 Y113.052 E0.04024
G1 X86.948 Y115.995 E0.24802
G1 X87.624 Y115.995 E0.04024
G1 X84.005 Y112.376 E0.30494
G1 X84.005 Y111.701 E0.04024
G1 X88.299 Y115.995 E0.36185
G1 X88.975 Y115.995 E0.04024
G1 X84.005 Y111.025 E0.41877
G1 X84.005 Y110.350 E0.04024
G1 X89.650 Y115.995 E0.47568
G1 X90.326 Y115.995 E0.04024
G1 X84.005 Y109.674 E0.53259
G1 X84.005 Y108.999 E0.04024
G1 X91.001 Y115.995 E0.58951
G1 X91.677 Y115.995 E0.04024
G1 X84.005 Y108.323 E0.64642
G1 X84.005 Y107.648 E0.04024
G1 X92.352 Y115.995 E0.70334
G1 X93.028 Y115.995 E0.04024
G1 X84.005 Y106.972 E0.76025
G1 X84.005 Y106.297 E0.04024
G1 X93.703 Y115.995 E0.81717
G1 X94.379 Y115.995 E0.04024
G1 X84.005 Y105.621 E0.87408
G1 X84.005 Y104.945 E0.04024
G1 X95.055 Y115.995 E0.93099
G1 X95.730 Y115.995 E0.04024
G1 X84.005 Y104.270 E0.98791
G1 X84.005 Y103.594 E0.04024
G1 X96.406 Y115.995 E1.04482
G1 X97.081 Y115.995 E0.04024
G1 X84.005 Y102.919 E1.10174
G1 X84.005 Y102.243 E0.04024
G1 X97.757 Y115.995 E1.15865
G1 X98.432 Y115.995 E0.04024
G1 X84.005 Y101.568 E1.21557
G1 X84.005 Y100.892 E0.04024
G1 X99.108 Y115.995 E1.27248
G1 X99.783 Y115.995 E0.04024
G1 X84.005 Y100.217 E1.32939
G1 X84.005 Y99.541 E0.04024
G1 X100.459 Y115.995 E1.38631
G1 X101.134 Y115.995 E0.04024
G1 X84.005 Y98.866 E1.44322
G1 X84.005 Y98.190 E0.04024
G1 X101.810 Y115.995 E1.50014
G1 X102.485 Y115.995 E0.04024
G1 X84.005 Y97.515 E1.55705
G1 X84.005 Y96.839 E0.04024
G1 X103.161 Y115.995 E1.61396
G1 X103.836 Y115.995 E0.04024
G1 X84.005 Y96.164 E1.67088
G1 X84.005 Y95.488 E0.04024
G1 X104.512 Y115.995 E1.72779
G1 X105.187 Y115.995 E0.04024
G1 X84.005 Y94.813 E1.78471
G1 X84.005 Y94.137 E0.04024
G1 X105.863 Y115.995 E1.84162
G1 X106.538 Y115.995 E0.04024
G1 X84.005 Y93.462 E1.89854
G1 X84.005 Y92.786 E0.04024
G1 X107.214 Y115.995 E1.95545
G1 X107.889 Y115.995 E0.04024
G1 X84.005 Y92.111 E2.01236
G1 X84.005 Y91.435 E0.04024
G1 X108.565 Y115.995 E2.06928
G1 X109.240 Y115.995 E0.04024
G1 X84.005 Y90.760 E2.12619
G1 X84.005 Y90.084 E0.04024
G1 X109.916 Y115.995 E2.18311
G1 X110.591 Y115.995 E0.04024
G1 X84.005 Y89.409 E2.24002
G1 X84.005 Y88.733 E0.04024
G1 X111.267 Y115.995 E2.29694
G1 X111.942 Y115.995 E0.04024
G1 X84.005 Y88.058 E2.35385
G1 X84.005 Y87.382 E0.04024
G1 X112.618 Y115.995 E2.41076
G1 X113.293 Y115.995 E0.04024
G1 X84.005 Y86.707 E2.46768
G1 X84.005 Y86.031 E0.04024
G1 X113.969 Y115.995 E2.52459
G1 X114.644 Y115.995 E0.04024
G1 X84.005 Y85.356 E2.58151
G1 X84.005 Y84.680 E0.04024
G1 X115.320 Y115.995 E2.63842
G1 X115.975 Y115.975 E0.03907
G1 X84.025 Y84.025 E2.69197
G1 X84.680 Y84.005 E0.03907
G1 X115.995 Y115.320 E2.63843
G1 X115.995 Y114.644 E0.04024
G1 X85.356 Y84.005 E2.58151
G1 X86.031 Y84.005 E0.04024
G1 X115.995 Y113.969 E2.52460
G1 X115.995 Y113.293 E0.04024
G1 X86.707 Y84.005 E2.46768
G1 X87.382 Y84.005 E0.04024
G1 X115.995 Y112.618 E2.41077
G1 X115.995 Y111.942 E0.04024
G1 X88.058 Y84.005 E2.35385
G1 X88.733 Y84.005 E0.04024
G1 X115.995 Y111.267 E2.29694
G1 X115.995 Y110.591 E0.04024
G1 X89.409 Y84.005 E2.24003
G1 X90.084 Y84.005 E0.04024
G1 X115.995 Y109.916 E2.18311
G1 X115.995 Y109.240 E0.04024
G1 X90.760 Y84.005 E2.12620
G1 X91.435 Y84.005 E0.04024
G1 X115.995 Y108.565 E2.06928
G1 X115.995 Y107.889 E0.04024
G1 X92.111 Y84.005 E2.01237
G1 X92.786 Y84.005 E0.04024
G1 X115.995 Y107.214 E1.95546
G1 X115.995 Y106.538 E0.04024
G1 X93.462 Y84.005 E1.89854
G1 X94.137 Y84.005 E0.04024
G1 X115.995 Y105.863 E1.84163
G1 X115.995 Y105.187 E0.04024
G1 X94.813 Y84.005 E1.78471
G1 X95.488 Y84.005 E0.04024
G1 X115.995 Y104.512 E1.72780
G1 X115.995 Y103.836 E0.04024
G1 X96.164 Y84.005 E1.67088
G1 X96.839 Y84.005 E0.04024
G1 X115.995 Y103.161 E1.61397
G1 X115.995 Y102.485 E0.04024
G1 X97.515 Y84.005 E1.55706
G1 X98.190 Y84.005 E0.04024
G1 X115.995 Y101.810 E1.50014
G1 X115.995 Y101.134 E0.04024
G1 X98.866 Y84.005 E1.44323
G1 X99.541 Y84.005 E0.04024
G1 X115.995 Y100.459 E1.38631
G1 X115.995 Y99.783 E0.04024
G1 X100.217 Y84.005 E1.32940
G1 X100.892 Y84.005 E0.04024
G1 X115.995 Y99.108 E1.27248
G1 X115.995 Y98.432 E0.04024
G1 X101.568 Y84.005 E1.21557
G1 X102.243 Y84.005 E0.04024
G1 X115.995 Y97.757 E1.15866
G1 X115.995 Y97.081 E0.04024
G1 X102.919 Y84.005 E1.10174
G1 X103.594 Y84.005 E0.04024
G1 X115.995 Y96.406 E1.04483
G1 X115.995 Y95.730 E0.04024
G1 X104.270 Y84.005 E0.98791
G1 X104.945 Y84.005 E0.04024
G1 X115.995 Y95.055 E0.93100
G1 X115.995 Y94.379 E0.04024
G1 X105.621 Y84.005 E0.87408
G1 X106.296 Y84.005 E0.04024
G1 X115.995 Y93.704 E0.81717
G1 X115.995 Y93.028 E0.04024
G1 X106.972 Y84.005 E0.76026
G1 X107.647 Y84.005 E0.04024
G1 X115.995 Y92.353 E0.70334
G1 X115.995 Y91.677 E0.04024
G1 X108.323 Y84.005 E0.64643
G1 X108.998 Y84.005 E0.04024
G1 X115.995 Y91.002 E0.58951
G1 X115.995 Y90.326 E0.04024
G1 X109.674 Y84.005 E0.53260
G1 X110.350 Y84.005 E0.04024
G1 X115.995 Y89.650 E0.47569
G1 X115.995 Y88.975 E0.04024
G1 X111.025 Y84.005 E0.41877
G1 X111.701 Y84.005 E0.04024
G1 X115.995 Y88.299 E0.36186
G1 X115.995 Y87.624 E0.04024
G1 X112.376 Y84.005 E0.30494
G1 X113.052 Y84.005 E0.04024
G1 X115.995 Y86.948 E0.24803
G1 X115.995 Y86.273 E0.04024
G1 X113.727 Y84.005 E0.19111
G1 X114.403 Y84.005 E0.04024
G1 X115.995 Y85.597 E0.13420
G1 X115.995 Y84.922 E0.04024
G1 X115.078 Y84.005 E0.07729
G1 X115.754 Y84.005 E0.04024
G1 X115.995 Y84.246 E0.02037
M204 S3000
M106 S196.35
M104 S230 ; set temperature
G10 ; retract
G1 Z0.600 F12000.000
;$ layer 1
G0 X0 Y230 F10800;
 G4 P1
M38 Spic 1; take picture and tag layer number
M105; check temperatures
G1 X83.346 Y83.346 F12000.000
G11 ; unretract
M204 S200
G1 X116.654 Y83.346 E1.35272 F3600.000
G1 X116.654 Y116.654 E1.35272
G1 X83.346 Y116.654 E1.35272
G1 X83.346 Y83.406 E1.35028
M204 S3000
G1 X83.021 Y83.021 F12000.000
M204 S200
G1 X116.979 Y83.021 E1.37917 F3600.000
G1 X116.979 Y116.979 E1.37917
G1 X83.021 Y116.979 E1.37917
G1 X83.021 Y83.081 E1.37673
M204 S3000
G1 X82.695 Y82.695 F12000.000
M204 S200
G1 X117.305 Y82.695 E1.40562 F1800.000
G1 X117.305 Y117.305 E1.40562
G1 X82.695 Y117.305 E1.40562
G1 X82.695 Y82.755 E1.40318
M204 S3000
G1 X83.041 Y82.895 F12000.000
G1 X83.846 Y83.579 F12000.000
M204 S2000
G1 X83.579 Y83.846 E0.02525 F8100.000
G1 X83.579 Y84.603 E0.05062
G1 X84.603 Y83.579 E0.09683
G1 X85.361 Y83.579 E0.05062
G1 X83.579 Y85.361 E0.16841
G1 X83.579 Y86.119 E0.05062
G1 X86.119 Y83.579 E0.23999
G1 X86.876 Y83.579 E0.05062
G1 X83.579 Y86.876 E0.31157
G1 X83.579 Y87.634 E0.05062
G1 X87.634 Y83.579 E0.38315
G1 X88.391 Y83.579 E0.05062
G1 X83.579 Y88.391 E0.45474
G1 X83.579 Y89.149 E0.05062
G1 X89.149 Y83.579 E0.52632
G1 X89.906 Y83.579 E0.05062
G1 X83.579 Y89.906 E0.59790
G1 X83.579 Y90.664 E0.05062
G1 X90.664 Y83.579 E0.66948
G1 X91.422 Y83.579 E0.05062
G1 X83.579 Y91.422 E0.74106
G1 X83.579 Y92.179 E0.05062
G1 X92.179 Y83.579 E0.81264
G1 X92.937 Y83.579 E0.05062
G1 X83.579 Y92.937 E0.88423
G1 X83.579 Y93.694 E0.05062
G1 X93.694 Y83.579 E0.95581
G1 X94.452 Y83.579 E0.05062
G1 X83.579 Y94.452 E1.02739
G1 X83.579 Y95.209 E0.05062
G1 X95.209 Y83.579 E1.09897
G1 X95.967 Y83.579 E0.05062
G1 X83.579 Y95.967 E1.17055
G1 X83.579 Y96.725 E0.05062
G1 X96.725 Y83.579 E1.24213
G1 X97.482 Y83.579 E0.05062
G1 X83.579 Y97.482 E1.31372
G1 X83.579 Y98.240 E0.05062
G1 X98.240 Y83.579 E1.38530
G1 X98.997 Y83.579 E0.05062
G1 X83.579 Y98.997 E1.45688
G1 X83.579 Y99.755 E0.05062
G1 X99.755 Y83.579 E1.52846
G1 X100.512 Y83.579 E0.05062
G1 X83.579 Y100.512 E1.60004
G1 X83.579 Y101.270 E0.05062
G1 X101.270 Y83.579 E1.67162
G1 X102.027 Y83.579 E0.05062
G1 X83.579 Y102.028 E1.74321
G1 X83.579 Y102.785 E0.05062
G1 X102.785 Y83.579 E1.81479
G1 X103.543 Y83.579 E0.05062
G1 X83.579 Y103.543 E1.88637
G1 X83.579 Y104.300 E0.05062
G1 X104.300 Y83.579 E1.95795
G1 X105.058 Y83.579 E0.05062
G1 X83.579 Y105.058 E2.02953
G1 X83.579 Y105.815 E0.05062
G1 X105.815 Y83.579 E2.10111
G1 X106.573 Y83.579 E0.05062
G1 X83.579 Y106.573 E2.17269
G1 X83.579 Y107.330 E0.05062
G1 X107.330 Y83.579 E2.24428
G1 X108.088 Y83.579 E0.05062
G1 X83.579 Y108.088 E2.31586
G1 X83.579 Y108.846 E0.05062
G1 X108.846 Y83.579 E2.38744
G1 X109.603 Y83.579 E0.05062
G1 X83.579 Y109.603 E2.45902
G1 X83.579 Y110.361 E0.05062
G1 X110.361 Y83.579 E2.53060
G1 X111.118 Y83.579 E0.05062
G1 X83.579 Y111.118 E2.60218
G1 X83.579 Y111.876 E0.05062
G1 X111.876 Y83.579 E2.67377
G1 X112.633 Y83.579 E0.05062
G1 X83.579 Y112.633 E2.74535
G1 X83.579 Y113.391 E0.05062
G1 X113.391 Y83.579 E2.81693
G1 X114.149 Y83.579 E0.05062
G1 X83.579 Y114.149 E2.88851
G1 X83.579 Y114.906 E0.05062
G1 X114.906 Y83.579 E2.96009
G1 X115.664 Y83.579 E0.05062
G1 X83.579 Y115.664 E3.03167
G1 X83.599 Y116.401 E0.04930
G1 X116.401 Y83.599 E3.09948
G1 X116.421 Y84.336 E0.04930
G1 X84.336 Y116.421 E3.03168
G1 X85.094 Y116.421 E0.05062
G1 X116.421 Y85.094 E2.96010
G1 X116.421 Y85.851 E0.05062
G1 X85.851 Y116.421 E2.88852
G1 X86.609 Y116.421 E0.05062
G1 X116.421 Y86.609 E2.81694
G1 X116.421 Y87.366 E0.05062
G1 X87.366 Y116.421 E2.74535
G1 X88.124 Y116.421 E0.05062
G1 X116.421 Y88.124 E2.67377
G1 X116.421 Y88.882 E0.05062
G1 X88.882 Y116.421 E2.60219
G1 X89.639 Y116.421 E0.05062
G1 X116.421 Y89.639 E2.53061
G1 X116.421 Y90.397 E0.05062
G1 X90.397 Y116.421 E2.45903
G1 X91.154 Y116.421 E0.05062
G1 X116.421 Y91.154 E2.38745
G1 X116.421 Y91.912 E0.05062
G1 X91.912 Y116.421 E2.31586
G1 X92.669 Y116.421 E0.05062
G1 X116.421 Y92.669 E2.24428
G1 X116.421 Y93.427 E0.05062
G1 X93.427 Y116.421 E2.17270
G1 X94.185 Y116.421 E0.05062
G1 X116.421 Y94.185 E2.10112
G1 X116.421 Y94.942 E0.05062
G1 X94.942 Y116.421 E2.02954
G1 X95.700 Y116.421 E0.05062
G1 X116.421 Y95.700 E1.95796
G1 X116.421 Y96.457 E0.05062
G1 X96.457 Y116.421 E1.88637
G1 X97.215 Y116.421 E0.05062
G1 X116.421 Y97.215 E1.81479
G1 X116.421 Y97.972 E0.05062
G1 X97.972 Y116.421 E1.74321
G1 X98.730 Y116.421 E0.05062
G1 X116.421 Y98.730 E1.67163
G1 X116.421 Y99.488 E0.05062
G1 X99.488 Y116.421 E1.60005
G1 X100.245 Y116.421 E0.05062
G1 X116.421 Y100.245 E1.52847
G1 X116.421 Y101.003 E0.05062
G1 X101.003 Y116.421 E1.45688
G1 X101.760 Y116.421 E0.05062
G1 X116.421 Y101.760 E1.38530
G1 X116.421 Y102.518 E0.05062
G1 X102.518 Y116.421 E1.31372
G1 X103.275 Y116.421 E0.05062
G1 X116.421 Y103.275 E1.24214
G1 X116.421 Y104.033 E0.05062
G1 X104.033 Y116.421 E1.17056
G1 X104.791 Y116.421 E0.05062
G1 X116.421 Y104.791 E1.09898
G1 X116.421 Y105.548 E0.05062
G1 X105.548 Y116.421 E1.02739
G1 X106.306 Y116.421 E0.05062
G1 X116.421 Y106.306 E0.95581
G1 X116.421 Y107.063 E0.05062
G1 X107.063 Y116.421 E0.88423
G1 X107.821 Y116.421 E0.05062
G1 X116.421 Y107.821 E0.81265
G1 X116.421 Y108.578 E0.05062
G1 X108.578 Y116.421 E0.74107
G1 X109.336 Y116.421 E0.05062
G1 X116.421 Y109.336 E0.66949
G1 X116.421 Y110.094 E0.05062
G1 X110.094 Y116.421 E0.59790
G1 X110.851 Y116.421 E0.05062
G1 X116.421 Y110.851 E0.52632
G1 X116.421 Y111.609 E0.05062
G1 X111.609 Y116.421 E0.45474
G1 X112.366 Y116.421 E0.05062
G1 X116.421 Y112.366 E0.38316
G1 X116.421 Y113.124 E0.05062
G1 X113.124 Y116.421 E0.31158
G1 X113.881 Y116.421 E0.05062
G1 X116.421 Y113.881 E0.24000
G1 X116.421 Y114.639 E0.05062
G1 X114.639 Y116.421 E0.16841
G1 X115.397 Y116.421 E0.05062
G1 X116.421 Y115.397 E0.09683
G1 X116.421 Y116.154 E0.05062
G1 X116.154 Y116.421 E0.02525
M204 S3000
G10 ; retract
G1 Z0.900 F12000.000
;$ layer 2
G0 X0 Y230 F10800;
 G4 P1
M38 Spic 2; take picture and tag layer number
M105; check temperatures
G1 X83.346 Y83.346 F12000.000
G11 ; unretract
M204 S200
G1 X116.654 Y83.346 E1.35272 F3600.000
G1 X116.654 Y116.654 E1.35272
G1 X83.346 Y116.654 E1.35272
G1 X83.346 Y83.406 E1.35028
M204 S3000
G1 X83.021 Y83.021 F12000.000
M204 S200
G1 X116.979 Y83.021 E1.37917 F3600.000
G1 X116.979 Y116.979 E1.37917
G1 X83.021 Y116.979 E1.37917
G1 X83.021 Y83.081 E1.37673
M204 S3000
G1 X82.695 Y82.695 F12000.000
M204 S200
G1 X117.305 Y82.695 E1.40562 F1800.000
G1 X117.305 Y117.305 E1.40562
G1 X82.695 Y117.305 E1.40562
G1 X82.695 Y82.755 E1.40318
M204 S3000
G1 X83.041 Y82.895 F12000.000
G1 X83.579 Y116.154 F12000.000
M204 S2000
G1 X83.846 Y116.421 E0.02525 F8100.000
G1 X84.603 Y116.421 E0.05062
G1 X83.579 Y115.397 E0.09683
G1 X83.579 Y114.639 E0.05062
G1 X85.361 Y116.421 E0.16841
G1 X86.119 Y116.421 E0.05062
G1 X83.579 Y113.881 E0.23999
G1 X83.579 Y113.124 E0.05062
G1 X86.876 Y116.421 E0.31157
G1 X87.634 Y116.421 E0.05062
G1 X83.579 Y112.366 E0.38315
G1 X83.579 Y111.609 E0.05062
G1 X88.391 Y116.421 E0.45474
G1 X89.149 Y116.421 E0.05062
G1 X83.579 Y110.851 E0.52632
G1 X83.579 Y110.094 E0.05062
G1 X89.906 Y116.421 E0.59790
G1 X90.664 Y116.421 E0.05062
G1 X83.579 Y109.336 E0.66948
G1 X83.579 Y108.578 E0.05062
G1 X91.422 Y116.421 E0.74106
G1 X92.179 Y116.421 E0.05062
G1 X83.579 Y107.821 E0.81264
G1 X83.579 Y107.063 E0.05062
G1 X92.937 Y116.421 E0.88423
G1 X93.694 Y116.421 E0.05062
G1 X83.579 Y106.306 E0.95581
G1 X83.579 Y105.548 E0.05062
G1 X94.452 Y116.421 E1.02739
G1 X95.209 Y116.421 E0.05062
G1 X83.579 Y104.791 E1.09897
G1 X83.579 Y104.033 E0.05062
G1 X95.967 Y116.421 E1.17055
G1 X96.725 Y116.421 E0.05062
G1 X83.579 Y103.275 E1.24213
G1 X83.579 Y102.518 E0.05062
G1 X97.482 Y116.421 E1.31372
G1 X98.240 Y116.421 E0.05062
G1 X83.579 Y101.760 E1.38530
G1 X83.579 Y101.003 E0.05062
G1 X98.997 Y116.421 E1.45688
G1 X99.755 Y116.421 E0.05062
G1 X83.579 Y100.245 E1.52846
G1 X83.579 Y99.488 E0.05062
G1 X100.512 Y116.421 E1.60004
G1 X101.270 Y116.421 E0.05062
G1 X83.579 Y98.730 E1.67162
G1 X83.579 Y97.972 E0.05062
G1 X102.027 Y116.421 E1.74321
G1 X102.785 Y116.421 E0.05062
G1 X83.579 Y97.215 E1.81479
G1 X83.579 Y96.457 E0.05062
G1 X103.543 Y116.421 E1.88637
G1 X104.300 Y116.421 E0.05062
G1 X83.579 Y95.700 E1.95795
G1 X83.579 Y94.942 E0.05062
G1 X105.058 Y116.421 E2.02953
G1 X105.815 Y116.421 E0.05062
G1 X83.579 Y94.185 E2.10111
G1 X83.579 Y93.427 E0.05062
G1 X106.573 Y116.421 E2.17269
G1 X107.330 Y116.421 E0.05062
G1 X83.579 Y92.670 E2.24428
G1 X83.579 Y91.912 E0.05062
G1 X108.088 Y116.421 E2.31586
G1 X108.846 Y116.421 E0.05062
G1 X83.579 Y91.154 E2.38744
G1 X83.579 Y90.397 E0.05062
G1 X109.603 Y116.421 E2.45902
G1 X110.361 Y116.421 E0.05062
G1 X83.579 Y89.639 E2.53060
G1 X83.579 Y88.882 E0.05062
G1 X111.118 Y116.421 E2.60218
G1 X111.876 Y116.421 E0.05062
G1 X83.579 Y88.124 E2.67377
G1 X83.579 Y87.367 E0.05062
G1 X112.633 Y116.421 E2.74535
G1 X113.391 Y116.421 E0.05062
G1 X83.579 Y86.609 E2.81693
G1 X83.579 Y85.851 E0.05062
G1 X114.149 Y116.421 E2.88851
G1 X114.906 Y116.421 E0.05062
G1 X83.579 Y85.094 E2.96009
G1 X83.579 Y84.336 E0.05062
G1 X115.664 Y116.421 E3.03167
G1 X116.401 Y116.401 E0.04930
G1 X83.599 Y83.599 E3.09948
G1 X84.336 Y83.579 E0.04930
G1 X116.421 Y115.664 E3.03168
G1 X116.421 Y114.906 E0.05062
G1 X85.094 Y83.579 E2.96010
G1 X85.851 Y83.579 E0.05062
