; generated by NVBOTS
; RAFT - v3.3
;X = 190.0
;Y = 200.0
;Line Temp 220
;Fill Temp 220
;Bridge Multiplier 0.7
;Offset 0.04
G21
M83
M190 V50
M190 S50
M104 T0 S220
G28 X Y
; Begin move/purge/wipe gcode
M38 Sjam
; Start move to purge gcode
G90 ; absolute
G92 E0 ; reset e
M107 ; turn part fan off
G0 X189 F10800 ;
G0 Y0
; End move to purge gcode
M109 T0 S220
; Start Purge Gcode
M107
G91
G0 E6 F100
G90
G92 E0
G10
G0 X160 F5000
G4 P1
G0 X0 F10800
G0 Y228
G92 E0
G11
; End Purge Gcode
M38 Sjam 0 T0; turn on jam detection for tool 0 with 0 millisecond timeout
; End move/purge/wipe gcode
G28 Z
M38 Sjam 20000; turn on jam detector with 20000ms timeout

;RAFT LINE LAYER NUM 1

G0 Z0.5 F200.0 ; move Z
G10 ; retract
G0 X0 Y1000 F10800.0 ; move to top left corner
M105 ; check temperatures
G4 P1 ; clear buffer
M38 Spic before_raft_line_1; take picture
G1 X-1.0 Y228.0 F10800.0
G11 ; unretract!
G1 X189.0 E46.5306122449 F1225.0
G1 Y218.0 F10800.0
G1 X-1.0 E46.5306122449 F1225.0
G1 Y208.0 F10800.0
G1 X189.0 E46.5306122449 F1225.0
G1 Y198.0 F10800.0
G1 X-1.0 E46.5306122449 F1225.0
G1 Y188.0 F10800.0
G1 X189.0 E46.5306122449 F1225.0
G1 Y178.0 F10800.0
G1 X-1.0 E46.5306122449 F1225.0
G1 Y168.0 F10800.0
G1 X189.0 E46.5306122449 F1225.0
G1 Y158.0 F10800.0
G1 X-1.0 E46.5306122449 F1225.0
G1 Y148.0 F10800.0
G1 X189.0 E46.5306122449 F1225.0
G1 Y138.0 F10800.0
G1 X-1.0 E46.5306122449 F1225.0
G1 Y128.0 F10800.0
G1 X189.0 E46.5306122449 F1225.0
G1 Y118.0 F10800.0
G1 X-1.0 E46.5306122449 F1225.0
G1 Y108.0 F10800.0
G1 X189.0 E46.5306122449 F1225.0
G1 Y98.0 F10800.0
G1 X-1.0 E46.5306122449 F1225.0
G1 Y88.0 F10800.0
G1 X189.0 E46.5306122449 F1225.0
G1 Y78.0 F10800.0
G1 X-1.0 E46.5306122449 F1225.0
G1 Y68.0 F10800.0
G1 X189.0 E46.5306122449 F1225.0
G1 Y58.0 F10800.0
G1 X-1.0 E46.5306122449 F1225.0
G1 Y48.0 F10800.0
G1 X189.0 E46.5306122449 F1225.0
G1 Y38.0 F10800.0
G1 X-1.0 E46.5306122449 F1225.0
G1 Y28.0 F10800.0
G1 X189.0 E46.5306122449 F1225.0

;RAFT LINE LAYER NUM 2

G0 Z1.0 F200.0 ; move Z
G10 ; retract
G0 X0 Y1000 F10800.0 ; move to top left corner
M105 ; check temperatures
G4 P1 ; clear buffer
M38 Spic before_raft_line_2; take picture
G1 X-1.0 Y228.0 F10800.0
G11 ; unretract!
G1 X189.0 E46.5306122449 F1225.0
G1 Y218.0 F10800.0
G1 X-1.0 E46.5306122449 F1225.0
G1 Y208.0 F10800.0
G1 X189.0 E46.5306122449 F1225.0
G1 Y198.0 F10800.0
G1 X-1.0 E46.5306122449 F1225.0
G1 Y188.0 F10800.0
G1 X189.0 E46.5306122449 F1225.0
G1 Y178.0 F10800.0
G1 X-1.0 E46.5306122449 F1225.0
G1 Y168.0 F10800.0
G1 X189.0 E46.5306122449 F1225.0
G1 Y158.0 F10800.0
G1 X-1.0 E46.5306122449 F1225.0
G1 Y148.0 F10800.0
G1 X189.0 E46.5306122449 F1225.0
G1 Y138.0 F10800.0
G1 X-1.0 E46.5306122449 F1225.0
G1 Y128.0 F10800.0
G1 X189.0 E46.5306122449 F1225.0
G1 Y118.0 F10800.0
G1 X-1.0 E46.5306122449 F1225.0
G1 Y108.0 F10800.0
G1 X189.0 E46.5306122449 F1225.0
G1 Y98.0 F10800.0
G1 X-1.0 E46.5306122449 F1225.0
G1 Y88.0 F10800.0
G1 X189.0 E46.5306122449 F1225.0
G1 Y78.0 F10800.0
G1 X-1.0 E46.5306122449 F1225.0
G1 Y68.0 F10800.0
G1 X189.0 E46.5306122449 F1225.0
G1 Y58.0 F10800.0
G1 X-1.0 E46.5306122449 F1225.0
G1 Y48.0 F10800.0
G1 X189.0 E46.5306122449 F1225.0
G1 Y38.0 F10800.0
G1 X-1.0 E46.5306122449 F1225.0
G1 Y28.0 F10800.0
G1 X189.0 E46.5306122449 F1225.0

;TEMP CHANGE
M104 T0 S220

;RAFT FILL LAYER NUM 1

G0 Z1.2 F200.0 ; move Z
G10 ; retract
G0 X0 Y1000 F10800.0 ; move to top left corner
M105 ; check temperatures
G4 P1 ; clear buffer
M38 Spic before_raft_fill_1; take picture
G1 X-1.0 Y228.0 F10800.0
G11 ; unretract!
G0 F3828.125
G1 Y28.0 E15.6734693878
G1 X0.2 E0.0940408163265
G1 Y228.0 E15.6734693878
G1 X1.4 E0.0940408163265
G1 Y28.0 E15.6734693878
G1 X2.6 E0.0940408163265
G1 Y228.0 E15.6734693878
G1 X3.8 E0.0940408163265
G1 Y28.0 E15.6734693878
G1 X5.0 E0.0940408163265
G1 Y228.0 E15.6734693878
G1 X6.2 E0.0940408163265
G1 Y28.0 E15.6734693878
G1 X7.4 E0.0940408163265
G1 Y228.0 E15.6734693878
G1 X8.6 E0.0940408163265
G1 Y28.0 E15.6734693878
G1 X9.8 E0.0940408163265
G1 Y228.0 E15.6734693878
G1 X11.0 E0.0940408163265
G1 Y28.0 E15.6734693878
G1 X12.2 E0.0940408163265
G1 Y228.0 E15.6734693878
G1 X13.4 E0.0940408163265
G1 Y28.0 E15.6734693878
G1 X14.6 E0.0940408163265
G1 Y228.0 E15.6734693878
G1 X15.8 E0.0940408163265
G1 Y28.0 E15.6734693878
G1 X17.0 E0.0940408163265
G1 Y228.0 E15.6734693878
G1 X18.2 E0.0940408163265
G1 Y28.0 E15.6734693878
G1 X19.4 E0.0940408163265
G1 Y228.0 E15.6734693878
G1 X20.6 E0.0940408163265
G1 Y28.0 E15.6734693878
G1 X21.8 E0.0940408163265
G1 Y228.0 E15.6734693878
G1 X23.0 E0.0940408163265
G1 Y28.0 E15.6734693878
G1 X24.2 E0.0940408163265
G1 Y228.0 E15.6734693878
G1 X25.4 E0.0940408163265
G1 Y28.0 E15.6734693878
G1 X26.6 E0.0940408163265
G1 Y228.0 E15.6734693878
G1 X27.8 E0.0940408163265
G1 Y28.0 E15.6734693878
G1 X29.0 E0.0940408163265
G1 Y228.0 E15.6734693878
G1 X30.2 E0.0940408163265
G1 Y28.0 E15.6734693878
G1 X31.4 E0.0940408163265
G1 Y228.0 E15.6734693878
G1 X32.6 E0.0940408163265
G1 Y28.0 E15.6734693878
G1 X33.8 E0.0940408163265
G1 Y228.0 E15.6734693878
G1 X35.0 E0.0940408163265
G1 Y28.0 E15.6734693878
G1 X36.2 E0.0940408163265
G1 Y228.0 E15.6734693878
G1 X37.4 E0.0940408163265
G1 Y28.0 E15.6734693878
G1 X38.6 E0.0940408163265
G1 Y228.0 E15.6734693878
G1 X39.8 E0.0940408163265
G1 Y28.0 E15.6734693878
G1 X41.0 E0.0940408163265
G1 Y228.0 E15.6734693878
G1 X42.2 E0.0940408163265
G1 Y28.0 E15.6734693878
G1 X43.4 E0.0940408163265
G1 Y228.0 E15.6734693878
G1 X44.6 E0.0940408163265
G1 Y28.0 E15.6734693878
G1 X45.8 E0.0940408163265
G1 Y228.0 E15.6734693878
G1 X47.0 E0.0940408163265
G1 Y28.0 E15.6734693878
G1 X48.2 E0.0940408163265
G1 Y228.0 E15.6734693878
G1 X49.4 E0.0940408163265
G1 Y28.0 E15.6734693878
G1 X50.6 E0.0940408163265
G1 Y228.0 E15.6734693878
G1 X51.8 E0.0940408163265
G1 Y28.0 E15.6734693878
G1 X53.0 E0.0940408163265
G1 Y228.0 E15.6734693878
G1 X54.2 E0.0940408163265
G1 Y28.0 E15.6734693878
G1 X55.4 E0.0940408163265
G1 Y228.0 E15.6734693878
G1 X56.6 E0.0940408163265
G1 Y28.0 E15.6734693878
G1 X57.8 E0.0940408163265
G1 Y228.0 E15.6734693878
G1 X59.0 E0.0940408163265
G1 Y28.0 E15.6734693878
G1 X60.2 E0.0940408163265
G1 Y228.0 E15.6734693878
G1 X61.4 E0.0940408163265
G1 Y28.0 E15.6734693878
G1 X62.6 E0.0940408163265
G1 Y228.0 E15.6734693878
G1 X63.8 E0.0940408163265
G1 Y28.0 E15.6734693878
G1 X65.0 E0.0940408163265
G1 Y228.0 E15.6734693878
G1 X66.2 E0.0940408163265
G1 Y28.0 E15.6734693878
G1 X67.4 E0.0940408163265
G1 Y228.0 E15.6734693878
G1 X68.6 E0.0940408163265
G1 Y28.0 E15.6734693878
G1 X69.8 E0.0940408163265
G1 Y228.0 E15.6734693878
G1 X71.0 E0.0940408163265
G1 Y28.0 E15.6734693878
G1 X72.2 E0.0940408163265
G1 Y228.0 E15.6734693878
G1 X73.4 E0.0940408163265
G1 Y28.0 E15.6734693878
G1 X74.6 E0.0940408163265
G1 Y228.0 E15.6734693878
G1 X75.8 E0.0940408163265
G1 Y28.0 E15.6734693878
G1 X77.0 E0.0940408163265
G1 Y228.0 E15.6734693878
G1 X78.2 E0.0940408163265
G1 Y28.0 E15.6734693878
G1 X79.4 E0.0940408163265
G1 Y228.0 E15.6734693878
G1 X80.6 E0.0940408163265
G1 Y28.0 E15.6734693878
G1 X81.8 E0.0940408163265
G1 Y228.0 E15.6734693878
G1 X83.0 E0.0940408163265
G1 Y28.0 E15.6734693878
G1 X84.2 E0.0940408163265
G1 Y228.0 E15.6734693878
G1 X85.4 E0.0940408163265
G1 Y28.0 E15.6734693878
G1 X86.6 E0.0940408163265
G1 Y228.0 E15.6734693878
G1 X87.8 E0.0940408163265
G1 Y28.0 E15.6734693878
G1 X89.0 E0.0940408163265
G1 Y228.0 E15.6734693878
G1 X90.2 E0.0940408163265
G1 Y28.0 E15.6734693878
G1 X91.4 E0.0940408163265
G1 Y228.0 E15.6734693878
G1 X92.6 E0.0940408163265
G1 Y28.0 E15.6734693878
G1 X93.8 E0.0940408163265
G1 Y228.0 E15.6734693878
G1 X95.0 E0.0940408163265
G1 Y28.0 E15.6734693878
G1 X96.2 E0.0940408163265
G1 Y228.0 E15.6734693878
G1 X97.4 E0.0940408163265
G1 Y28.0 E15.6734693878
G1 X98.6 E0.0940408163265
G1 Y228.0 E15.6734693878
G1 X99.8 E0.0940408163265
G1 Y28.0 E15.6734693878
G1 X101.0 E0.0940408163265
G1 Y228.0 E15.6734693878
G1 X102.2 E0.0940408163265
G1 Y28.0 E15.6734693878
G1 X103.4 E0.0940408163265
G1 Y228.0 E15.6734693878
G1 X104.6 E0.0940408163265
G1 Y28.0 E15.6734693878
G1 X105.8 E0.0940408163265
G1 Y228.0 E15.6734693878
G1 X107.0 E0.0940408163265
G1 Y28.0 E15.6734693878
G1 X108.2 E0.0940408163265
G1 Y228.0 E15.6734693878
G1 X109.4 E0.0940408163265
G1 Y28.0 E15.6734693878
G1 X110.6 E0.0940408163265
G1 Y228.0 E15.6734693878
G1 X111.8 E0.0940408163265
G1 Y28.0 E15.6734693878
G1 X113.0 E0.0940408163265
G1 Y228.0 E15.6734693878
G1 X114.2 E0.0940408163265
G1 Y28.0 E15.6734693878
G1 X115.4 E0.0940408163265
G1 Y228.0 E15.6734693878
G1 X116.6 E0.0940408163265
G1 Y28.0 E15.6734693878
G1 X117.8 E0.0940408163265
G1 Y228.0 E15.6734693878
G1 X119.0 E0.0940408163265
G1 Y28.0 E15.6734693878
G1 X120.2 E0.0940408163265
G1 Y228.0 E15.6734693878
G1 X121.4 E0.0940408163265
G1 Y28.0 E15.6734693878
G1 X122.6 E0.0940408163265
G1 Y228.0 E15.6734693878
G1 X123.8 E0.0940408163265
G1 Y28.0 E15.6734693878
G1 X125.0 E0.0940408163265
G1 Y228.0 E15.6734693878
G1 X126.2 E0.0940408163265
G1 Y28.0 E15.6734693878
G1 X127.4 E0.0940408163265
G1 Y228.0 E15.6734693878
G1 X128.6 E0.0940408163265
G1 Y28.0 E15.6734693878
G1 X129.8 E0.0940408163265
G1 Y228.0 E15.6734693878
G1 X131.0 E0.0940408163265
G1 Y28.0 E15.6734693878
G1 X132.2 E0.0940408163265
G1 Y228.0 E15.6734693878
G1 X133.4 E0.0940408163265
G1 Y28.0 E15.6734693878
G1 X134.6 E0.0940408163265
G1 Y228.0 E15.6734693878
G1 X135.8 E0.0940408163265
G1 Y28.0 E15.6734693878
G1 X137.0 E0.0940408163265
G1 Y228.0 E15.6734693878
G1 X138.2 E0.0940408163265
G1 Y28.0 E15.6734693878
G1 X139.4 E0.0940408163265
G1 Y228.0 E15.6734693878
G1 X140.6 E0.0940408163265
G1 Y28.0 E15.6734693878
G1 X141.8 E0.0940408163265
G1 Y228.0 E15.6734693878
G1 X143.0 E0.0940408163265
G1 Y28.0 E15.6734693878
G1 X144.2 E0.0940408163265
G1 Y228.0 E15.6734693878
G1 X145.4 E0.0940408163265
G1 Y28.0 E15.6734693878
G1 X146.6 E0.0940408163265
G1 Y228.0 E15.6734693878
G1 X147.8 E0.0940408163265
G1 Y28.0 E15.6734693878
G1 X149.0 E0.0940408163265
G1 Y228.0 E15.6734693878
G1 X150.2 E0.0940408163265
G1 Y28.0 E15.6734693878
G1 X151.4 E0.0940408163265
G1 Y228.0 E15.6734693878
G1 X152.6 E0.0940408163265
G1 Y28.0 E15.6734693878
G1 X153.8 E0.0940408163265
G1 Y228.0 E15.6734693878
G1 X155.0 E0.0940408163265
G1 Y28.0 E15.6734693878
G1 X156.2 E0.0940408163265
G1 Y228.0 E15.6734693878
G1 X157.4 E0.0940408163265
G1 Y28.0 E15.6734693878
G1 X158.6 E0.0940408163265
G1 Y228.0 E15.6734693878
G1 X159.8 E0.0940408163265
G1 Y28.0 E15.6734693878
G1 X161.0 E0.0940408163265
G1 Y228.0 E15.6734693878
G1 X162.2 E0.0940408163265
G1 Y28.0 E15.6734693878
G1 X163.4 E0.0940408163265
G1 Y228.0 E15.6734693878
G1 X164.6 E0.0940408163265
G1 Y28.0 E15.6734693878
G1 X165.8 E0.0940408163265
G1 Y228.0 E15.6734693878
G1 X167.0 E0.0940408163265
G1 Y28.0 E15.6734693878
G1 X168.2 E0.0940408163265
G1 Y228.0 E15.6734693878
G1 X169.4 E0.0940408163265
G1 Y28.0 E15.6734693878
G1 X170.6 E0.0940408163265
G1 Y228.0 E15.6734693878
G1 X171.8 E0.0940408163265
G1 Y28.0 E15.6734693878
G1 X173.0 E0.0940408163265
G1 Y228.0 E15.6734693878
G1 X174.2 E0.0940408163265
G1 Y28.0 E15.6734693878
G1 X175.4 E0.0940408163265
G1 Y228.0 E15.6734693878
G1 X176.6 E0.0940408163265
G1 Y28.0 E15.6734693878
G1 X177.8 E0.0940408163265
G1 Y228.0 E15.6734693878
G1 X179.0 E0.0940408163265
G1 Y28.0 E15.6734693878
G1 X180.2 E0.0940408163265
G1 Y228.0 E15.6734693878
G1 X181.4 E0.0940408163265
G1 Y28.0 E15.6734693878
G1 X182.6 E0.0940408163265
G1 Y228.0 E15.6734693878
G1 X183.8 E0.0940408163265
G1 Y28.0 E15.6734693878
G1 X185.0 E0.0940408163265
G1 Y228.0 E15.6734693878
G1 X186.2 E0.0940408163265
G1 Y28.0 E15.6734693878
G1 X187.4 E0.0940408163265
G1 Y228.0 E15.6734693878
G1 X188.6 E0.0940408163265
G1 Y28.0 E15.6734693878

;RAFT FILL LAYER NUM 2

G0 Z1.6 F200.0 ; move Z
G10 ; retract
G0 X0 Y1000 F10800.0 ; move to top left corner
M105 ; check temperatures
G4 P1 ; clear buffer
M38 Spic before_raft_fill_2; take picture
G1 X-1.0 Y228.0 F10800.0
G11 ; unretract!
G0 F3828.125
G1 X189.0 E14.8897959184
G1 Y226.8 E0.0940408163265
G1 X-1.0 E14.8897959184
G1 Y225.6 E0.0940408163265
G1 X189.0 E14.8897959184
G1 Y224.4 E0.0940408163265
G1 X-1.0 E14.8897959184
G1 Y223.2 E0.0940408163265
G1 X189.0 E14.8897959184
G1 Y222.0 E0.0940408163265
G1 X-1.0 E14.8897959184
G1 Y220.8 E0.0940408163265
G1 X189.0 E14.8897959184
G1 Y219.6 E0.0940408163265
G1 X-1.0 E14.8897959184
G1 Y218.4 E0.0940408163265
G1 X189.0 E14.8897959184
G1 Y217.2 E0.0940408163265
G1 X-1.0 E14.8897959184
G1 Y216.0 E0.0940408163265
G1 X189.0 E14.8897959184
G1 Y214.8 E0.0940408163265
G1 X-1.0 E14.8897959184
G1 Y213.6 E0.0940408163265
G1 X189.0 E14.8897959184
G1 Y212.4 E0.0940408163265
G1 X-1.0 E14.8897959184
G1 Y211.2 E0.0940408163265
G1 X189.0 E14.8897959184
G1 Y210.0 E0.0940408163265
G1 X-1.0 E14.8897959184
G1 Y208.8 E0.0940408163265
G1 X189.0 E14.8897959184
G1 Y207.6 E0.0940408163265
G1 X-1.0 E14.8897959184
G1 Y206.4 E0.0940408163265
G1 X189.0 E14.8897959184
G1 Y205.2 E0.0940408163265
G1 X-1.0 E14.8897959184
G1 Y204.0 E0.0940408163265
G1 X189.0 E14.8897959184
G1 Y202.8 E0.0940408163265
G1 X-1.0 E14.8897959184
G1 Y201.6 E0.0940408163265
G1 X189.0 E14.8897959184
G1 Y200.4 E0.0940408163265
G1 X-1.0 E14.8897959184
G1 Y199.2 E0.0940408163265
G1 X189.0 E14.8897959184
G1 Y198.0 E0.0940408163265
G1 X-1.0 E14.8897959184
G1 Y196.8 E0.0940408163265
G1 X189.0 E14.8897959184
G1 Y195.6 E0.0940408163265
G1 X-1.0 E14.8897959184
G1 Y194.4 E0.0940408163265
G1 X189.0 E14.8897959184
G1 Y193.2 E0.0940408163265
G1 X-1.0 E14.8897959184
G1 Y192.0 E0.0940408163265
G1 X189.0 E14.8897959184
G1 Y190.8 E0.0940408163265
G1 X-1.0 E14.8897959184
G1 Y189.6 E0.0940408163265
G1 X189.0 E14.8897959184
G1 Y188.4 E0.0940408163265
G1 X-1.0 E14.8897959184
G1 Y187.2 E0.0940408163265
G1 X189.0 E14.8897959184
G1 Y186.0 E0.0940408163265
G1 X-1.0 E14.8897959184
G1 Y184.8 E0.0940408163265
G1 X189.0 E14.8897959184
G1 Y183.6 E0.0940408163265
G1 X-1.0 E14.8897959184
G1 Y182.4 E0.0940408163265
G1 X189.0 E14.8897959184
G1 Y181.2 E0.0940408163265
G1 X-1.0 E14.8897959184
G1 Y180.0 E0.0940408163265
G1 X189.0 E14.8897959184
G1 Y178.8 E0.0940408163265
G1 X-1.0 E14.8897959184
G1 Y177.6 E0.0940408163265
G1 X189.0 E14.8897959184
G1 Y176.4 E0.0940408163265
G1 X-1.0 E14.8897959184
G1 Y175.2 E0.0940408163265
G1 X189.0 E14.8897959184
G1 Y174.0 E0.0940408163265
G1 X-1.0 E14.8897959184
G1 Y172.8 E0.0940408163265
G1 X189.0 E14.8897959184
G1 Y171.6 E0.0940408163265
G1 X-1.0 E14.8897959184
G1 Y170.4 E0.0940408163265
G1 X189.0 E14.8897959184
G1 Y169.2 E0.0940408163265
G1 X-1.0 E14.8897959184
G1 Y168.0 E0.0940408163265
G1 X189.0 E14.8897959184
G1 Y166.8 E0.0940408163265
G1 X-1.0 E14.8897959184
G1 Y165.6 E0.0940408163265
G1 X189.0 E14.8897959184
G1 Y164.4 E0.0940408163265
G1 X-1.0 E14.8897959184
G1 Y163.2 E0.0940408163265
G1 X189.0 E14.8897959184
G1 Y162.0 E0.0940408163265
G1 X-1.0 E14.8897959184
G1 Y160.8 E0.0940408163265
G1 X189.0 E14.8897959184
G1 Y159.6 E0.0940408163265
G1 X-1.0 E14.8897959184
G1 Y158.4 E0.0940408163265
G1 X189.0 E14.8897959184
G1 Y157.2 E0.0940408163265
G1 X-1.0 E14.8897959184
G1 Y156.0 E0.0940408163265
G1 X189.0 E14.8897959184
G1 Y154.8 E0.0940408163265
G1 X-1.0 E14.8897959184
G1 Y153.6 E0.0940408163265
G1 X189.0 E14.8897959184
G1 Y152.4 E0.0940408163265
G1 X-1.0 E14.8897959184
G1 Y151.2 E0.0940408163265
G1 X189.0 E14.8897959184
G1 Y150.0 E0.0940408163265
G1 X-1.0 E14.8897959184
G1 Y148.8 E0.0940408163265
G1 X189.0 E14.8897959184
G1 Y147.6 E0.0940408163265
G1 X-1.0 E14.8897959184
G1 Y146.4 E0.0940408163265
G1 X189.0 E14.8897959184
G1 Y145.2 E0.0940408163265
G1 X-1.0 E14.8897959184
G1 Y144.0 E0.0940408163265
G1 X189.0 E14.8897959184
G1 Y142.8 E0.0940408163265
G1 X-1.0 E14.8897959184
G1 Y141.6 E0.0940408163265
G1 X189.0 E14.8897959184
G1 Y140.4 E0.0940408163265
G1 X-1.0 E14.8897959184
G1 Y139.2 E0.0940408163265
G1 X189.0 E14.8897959184
G1 Y138.0 E0.0940408163265
G1 X-1.0 E14.8897959184
G1 Y136.8 E0.0940408163265
G1 X189.0 E14.8897959184
G1 Y135.6 E0.0940408163265
G1 X-1.0 E14.8897959184
G1 Y134.4 E0.0940408163265
G1 X189.0 E14.8897959184
G1 Y133.2 E0.0940408163265
G1 X-1.0 E14.8897959184
G1 Y132.0 E0.0940408163265
G1 X189.0 E14.8897959184
